!!!!SEGMENT: pl-wtm--a-38-644-89_rozycki-ludomir--tance-polskie-op-37-iii.krn
!!!cenid: 19xx:142
!!!COM: Różycki, Ludomir
!!!COM-rismID: pe50045573
!!!CDT: 1883-1953
!!!CNT: Polish
!!!OTL: Tańce Polskie op. 37/III.
!!!PDT: 1916
!!!AGN:
!!!YEC: Copyright 2022 Narodowy Instytut Fryderyka Chopina (https://polishscores.org)
!!!YEM: License CC-BY-4.0 (https://creativecommons.org/licenses/by/4.0)
!!!SMS-siglum: PL-Wtm
!!!SMS-shelfmark: A.38.644/89
!!!SMS-variant:
!!!SMS-altvar:
!!!SMS-shelfwork: W
!!!NIFC-rismSourceID: 1001205196
!!!NIFC-rismChildID: 1001205196
!!!NIFC-islandoraID: pl-wtm:79109
!!!URL-pdf-islandora: https://repozytorium.nifc.pl/islandora/object/pl-wtm%3A79109/datastream/PDF/view
!!!URL-scan: https://polish.musicsources.pl/pl/lokalizacje/galeria/druki-muzyczne/21816/3 @EN{Scan on Polish Music Sources Website} @PL{Skany w portalu Dziedzictwo Muzyki Polskiej w otwartym dostępie}
!!!IIIF:
!!!ONB-nifc:
!!!OMD: Allegro con fuoco. M.M.[quarter]=152.
!!!AIN: 1 piano
!!!key: C
**kern	**fing	**kern	**fing	**dynam
*part1	*part1	*part1	*part1	*part1
*staff2	*staff2	*staff1	*staff1	*
*ICklav	*	*ICklav	*	*
*Ipiano	*	*Ipiano	*	*
*I"[Piano]	*	*I"[Piano]	*	*
*clefF4	*	*clefG2	*	*
*k[]	*	*k[]	*	*
*C:	*	*C:	*	*
*M3/4	*	*M3/4	*	*
=1	=1	=1	=1	=1
*ped	*below	*	*	*
!LO:TX:b:i:t=ben marc.	!	!	!	!
8CC^/L 8GG 8C	1 2 5	8r	.	f
8GG^/J 8C 8G	1 3 5	8c^>/ 8g	1 3	.
2GTT\	.	(16f/LL	2	<
.	.	16d/	1	.
.	.	16f/	2	.
.	.	16a/JJ	4	.
.	.	16g/LL	3	.
.	.	16e/	1	.
.	.	16g/	3	.
*Xped	*	*	*	*
.	.	16cc/JJ)	5	[
=2	=2	=2	=2	=2
*ped	*	*	*	*
!LO:TX:b:i:t=ben marc.	!	!	!	!
8CC^/L 8GG 8C	.	8r	.	.
8GG^/J 8C 8G	.	8c^>/ 8g	.	.
2GTT\	.	(16f/LL	.	>
.	.	16d/	.	.
.	.	16f/	.	.
.	.	16a/JJ	.	.
.	.	16g/LL	.	.
.	.	16e/J	.	.
*Xped	*	*	*	*
.	.	8c/J)	.	]
=3	=3	=3	=3	=3
8CC^/L 8GG 8C	.	8r	.	.
8GG^/J 8C 8G	.	8c^>/ 8g	.	.
2GTT\	.	(16f/LL	.	.
.	.	16d/	.	.
.	.	16f/	.	.
.	.	16a/JJ	.	.
.	.	16g/LL	.	.
.	.	16e/	.	.
.	.	16g/	.	.
.	.	16cc/JJ)	.	.
!!LO:LB:g=original
=4	=4	=4	=4	=4
8CC^/L 8GG 8C	.	8r	.	.
8GG^/J 8C 8G	.	8c^>/ 8g	.	.
2GTT\	.	(16f/LL	.	.
.	.	16d/	.	.
.	.	16f/	.	.
.	.	16a/JJ	.	.
.	.	16g/LL	.	.
.	.	16e/J	.	.
.	.	8c/J)	.	.
=5	=5	=5	=5	=5
*ped	*	*	*	*
8EE-X^/L 8BB-X 8E-X	.	8r	.	mf
8BB-^/J 8E- 8B-X	.	8e-X^>/ 8b-X	1 3	.
!	!	!LO:TUP:a	!	!
2B-TT\	.	(24f\LL	1	<
.	.	24anZ\	2	.
.	.	24cc\	3	.
.	.	24ff\	1	.
.	.	24aa\	2	.
.	.	24ccc\JJ	4	[
.	.	16bb-X\LL	3	.
.	.	16gg\	1	.
.	.	16bb-\	3	.
*Xped	*	*	*	*
.	.	16eee-X\JJ)	5	.
=6	=6	=6	=6	=6
*ped	*	*	*	*
8EE-X^/L 8BB-X 8E-X	.	8r	.	.
8BB-^/J 8E- 8B-X	.	8e-X^>/ 8b-X	.	.
!	!	!LO:TUP:a	!	!
2B-TT\	.	(24f\LL	.	<
.	.	24anZ\	.	.
.	.	24cc\	.	.
.	.	24ff\	.	.
.	.	24aa\	.	.
.	.	24ccc\JJ	.	[
.	.	16bb-X\LL	3	>
.	.	16gg\J	2	.
*Xped	*	*	*	*
.	.	8ee-X\J)	1	]
!!LO:LB:g=original
=7	=7	=7	=7	=7
8EE-X^/L 8BB-X 8E-X	.	8r	.	p
8BB-^/J 8E- 8B-X	.	8e-X^>/ 8b-X	.	.
2B-TT\	.	(16a/LL	.	<
.	.	16f/	.	.
.	.	16a/	.	.
.	.	16cc/JJ	.	.
.	.	16b-\LL	.	.
.	.	16g\	.	.
.	.	16b-\	.	.
.	.	16ee-X\JJ)	.	[
=8	=8	=8	=8	=8
8EE-X^/L 8BB-X 8E-X	.	8r	.	.
8BB-^/J 8E- 8B-X	.	8e-X^>/ 8b-X	.	.
2B-TT\	.	(16a/LL	.	>
.	.	16f/	.	.
.	.	16a/	.	.
.	.	16cc/JJ	.	.
.	.	16b-/LL	3	.
.	.	16g/J	2	.
.	.	8e-/J)	1	]
=9	=9	=9	=9	=9
(16G^\LL	1	(16g^>/LL	4	.
16E-X\J	2	16e-X/J	2	.
8C\J)	3	8c/J)	1	.
(16E-^/LL	1	(16e-^>/LL	4	.
16C/J	2	16c/J	2	.
8AA-X/J)	3	8A-X/J)	1	.
4FFF^/ 4FF	5	4F^>/	2	p
=10	=10	=10	=10	=10
2.GGG-X^/ 2.GG-X	4	2.G-X^>/	3	.
!!LO:LB:g=original
=11||	=11||	=11||	=11||	=11||
*k[b-e-a-d-g-]	*	*k[b-e-a-d-g-]	*	*
*D-:	*	*D-:	*	*
*^	*	*	*	*
*	*ped	*	*	*	*
4ryy	8DD-^/L 8AA- 8D-	.	8r	.	p
.	[8AA-^/J [8D-	3 5	8d-^>/ 8a-	.	.
*	*Xped	*above	*	*	*
(16E-/LL	2AA-\] 2D-]	2	(16gn/LL	2	.
16Gn/	.	1	16e-/	1	.
16E-/	.	2	16g/	2	.
16G/JJ	.	1	16b-/JJ	4	.
16F/LL	.	.	16a-/LL	3	.
16A-/	.	.	16f/	1	.
16F/	.	.	16a-/	3	.
16A-/JJ)	.	.	16dd-/JJ)	5	.
=12	=12	=12	=12	=12	=12
4ryy	8DD-^/L 8AA- 8D-	.	8r	.	.
.	[8AA-^/J [8D-	.	8d-^>/ 8a-	.	.
(16E-/LL	2AA-\] 2D-]	.	(16gn/LL	.	.
16Gn/	.	.	16e-/	.	.
16E-/	.	.	16g/	.	.
16G/JJ	.	.	16b-/JJ	.	.
16F/LL	.	.	16a-/LL	.	.
16A-/	.	.	16f/J	.	.
16F/	.	.	8d-/J)	.	.
16A-/JJ)	.	.	.	.	.
=13	=13	=13	=13	=13	=13
4ryy	8DD-^/L 8AA- 8D-	.	8r	.	.
.	[8AA-^/J [8D-	.	8d-^>/ 8a-	.	.
(16E-/LL	2AA-\] 2D-]	.	(16gn/LL	.	.
16Gn/	.	.	16e-/	.	.
16E-/	.	.	16g/	.	.
16G/JJ	.	.	16b-/JJ	.	.
16F/LL	.	.	16a-/LL	.	.
16A-/	.	.	16f/	.	.
16F/	.	.	16a-/	.	.
16A-/JJ)	.	.	16dd-/JJ)	.	.
!!LO:LB:g=original
=14	=14	=14	=14	=14	=14
4ryy	8DD-^/L 8AA- 8D-	.	8r	.	.
.	[8AA-^/J [8D-	.	8d-^>/ 8a-	.	.
(16E-/LL	2AA-\] 2D-]	.	(16gn/LL	.	.
16Gn/	.	.	16e-/	.	.
16E-/	.	.	16g/	.	.
16G/JJ	.	.	16b-/JJ	.	.
16F/LL	.	.	16a-/LL	.	.
16A-/	.	.	16f/J	.	.
16F/	.	.	8d-/J)	.	.
16A-/JJ)	.	.	.	.	.
*v	*v	*	*	*	*
=15	=15	=15	=15	=15
*	*below	*	*	*
(16F^/LL	1	(16f^\LL 16ff	5	.
16D-/J	2	16dd-\J	3	.
8BB-/J)	3	8b-\J)	2	<
(16D-^/LL	1	(16d-^>/LL 16dd-	5	.
16BB-/J	2	16b-/J	4	.
8GG-/J)	3	8g-/J)	2	.
(16BB-^/LL	1	(16B-^>/LL 16b-	5	.
16GG-/J	2	16g-/J	3	.
8EE-/J)	3	8e-/J)	2	.
=16	=16	=16	=16	=16
*ped	*	*	*	*
!	!	!LO:TX:a:i:t=poco rit.	!	!
2.FFF/ 2.FF	.	2.F/ 2.f	.	rfz
*Xped	*	*	*	*
!!LO:PB:g=original
=17||	=17||	=17||	=17||	=17||
*k[]	*	*k[]	*	*
*C:	*	*C:	*	*
*^	*	*	*	*
*ped	*	*	*	*	*
4ryy	8EE'/L 8BB 8E	.	8r	.	f
.	[8BB/J [8E 8B	1 3 5	8e^>/ 8b	1 3	.
*Xped	*	*	*	*	*
(16F#X/LL	2BB\] 2E]	.	(16a/LL	2	.
16A/	.	.	16f#X/	1	.
16F#/	.	.	16a/	2	.
16A/JJ	.	.	16cc/JJ	4	.
16G/LL	.	.	16b\LL	3	.
16B/	.	.	16g\	1	.
16G/	.	.	16b\	3	.
16B/JJ)	.	.	16ee\JJ)	5	.
=18	=18	=18	=18	=18	=18
4ryy	8EE^/L 8BB 8E	.	8r	.	.
.	[8BB/J [8E 8B	.	8e^>/ 8b	.	.
(16F#X/LL	2BB\] 2E]	.	(16a/LL	.	.
16A/	.	.	16f#X/	.	.
16F#/	.	.	16a/	.	.
16A/JJ	.	.	16cc/JJ	.	.
16G/LL	.	.	16b/LL	3	.
16B/	.	.	16g/J	2	.
16G/	.	.	8e/J)	1	.
16B/JJ)	.	.	.	.	.
*v	*v	*	*	*	*
=19	=19	=19	=19	=19
8EE'/L 8BB	.	8r	.	p
!	!	!	!	!LO:HP:t=poco a poco cresc.:ext=s
8BB'/ 8E	.	8e^>/ 8b	.	<
8EE'/ 8BB	.	(16a/LL	.	.
.	.	16f#X/	.	.
8BB'/ 8E	.	16a/	.	.
.	.	16cc/JJ	.	.
8EE'/ 8BB	.	16b\LL	.	.
.	.	16g\	.	.
8BB'/J 8E	.	16b\	.	.
.	.	16ee\JJ)	.	.
!!LO:LB:g=original
=20	=20	=20	=20	=20
8EE'/L 8BB	.	8r	.	.
8BB'/ 8E	.	8e^>/ 8b	.	.
8EE'/ 8BB	.	(16a/LL	.	.
.	.	16f#X/	.	.
8BB'/ 8E	.	16a/	.	.
.	.	16cc/JJ	.	.
8EE'/ 8BB	.	16b/LL	.	[
.	.	16g/J	.	.
8BB'/J 8E	.	8e/J)	.	.
=21	=21	=21	=21	=21
*ped	*	*	*	*
8EE^/L 8BB 8E	.	8r	.	ff
8BB^/J 8E 8B	.	8b^\ 8ee 8bb	.	.
(16A^\LL	2	(16aa\LL	3	<
16F#X\	4	16ff#X\	2	.
16A\	2	16aa\	3	.
16c\JJ	1	16cc\JJ 16ccc	5	.
16B\LL	2	16bb\LL	4	.
16G\	4	16gg\	2	.
16B\	2	16bb\	3	.
*Xped	*	*	*	*
16e\JJ)	1	16ee\JJ) 16eee	5	[
=22	=22	=22	=22	=22
*ped	*	*	*	*
8EE^/L 8BB 8E	.	8r	.	.
!	!	!	!	!LO:HP:t=cresc._:ext=ud
8BB^/J 8E 8B	.	8b^\ 8ee 8bb	.	<
(16A\LL	.	(16aa\LL	.	.
16F#X\	.	16ff#X\	.	.
16A\	.	16aa\	.	.
16c\JJ	.	16ccc\JJ	.	.
16B\LL	2	16bb\LL	4	.
16G\J	4	16gg\J	2	.
*Xped	*	*	*	*
8E\J)	5	8ee\J)	1	[
!!LO:LB:g=original
=23	=23	=23	=23	=23
*^	*	*	*	*
*ped	*	*above	*	*	*
2E^/	8r	1	8r	.	p
!	!LO:TX:b:i:t=ben marc.	!	!	!	!LO:HP:t=cresc._molto_:ext=ud
.	8EE^\L 8BB	.	8e^>/ 8b	1 3	<
.	8EE^\ 8BB	.	(16a/LL	2	.
.	.	.	16f#X/	1	.
.	8EE^\J 8BB	.	16a/	2	.
*Xped	*	*	*	*	*
.	.	.	16cc/JJ	4	.
*ped	*	*	*	*	*
4F#X^/	8F#\L	1	16b\LL	3	.
.	.	.	16g#X\	1	.
.	8EE'\J 8BB	.	16b\	3	.
.	.	.	16ee\JJ)	5	.
*Xped	*	*	*	*	*
=24	=24	=24	=24	=24	=24
*	*	*	*^	*	*
*ped	*	*	*	*	*	*
2G#X^/	8r	1	8r	4ryy	.	.
.	8EE'\L 8BB	.	[<8e^>/ 8b	.	1 4	.
.	8EE'\ 8BB	.	(16a/LL	2e\]	3	.
.	.	.	16f#X/	.	2	.
.	8EE'\J 8BB	.	16a/	.	3	.
*Xped	*	*	*	*	*	*
.	.	.	16cc/JJ	.	5	.
*ped	*	*	*	*	*	*
4A^/	8A\L	.	16b\LL	.	3	.
.	.	.	16g#X\	.	2	.
.	8EE'\J 8BB	.	16b\	.	3	.
.	.	.	16ee\JJ)	.	5	.
*Xped	*	*	*	*	*	*
=25	=25	=25	=25	=25	=25	=25
*ped	*	*	*	*	*	*
2B^/	8r	.	8r	4ryy	.	.
.	8EE'\L 8BB	.	[<8e^>/ 8b	.	.	.
.	8EE'\ 8BB	.	(16a/LL	2e\]	.	.
.	.	.	16f#X/	.	.	.
.	8EE'\J 8BB	.	16a/	.	.	.
*Xped	*	*	*	*	*	*
.	.	.	16cc/JJ	.	.	.
*ped	*	*	*	*	*	*
4c^/	8r	.	16b\LL	.	.	.
.	.	.	16g#X\	.	.	.
.	8EE'\ 8BB	.	16b\	.	.	.
.	.	.	16ee\JJ)	.	.	[
*Xped	*	*	*	*	*	*
*	*	*	*v	*v	*	*
!!LO:LB:g=original
=26	=26	=26	=26	=26	=26
*ped	*	*	*	*	*
2.D/ 2.d	4r	.	8r	.	f
.	.	.	8e^>/ 8b 8ee	.	.
.	8EE'\L 8BB	.	(16a/LL	.	.
.	.	.	16f#X/	.	.
.	8EE'\ 8BB	.	16a/	.	.
.	.	.	16cc/JJ	.	.
.	8EE'\ 8BB	.	16b\LL	.	.
.	.	.	16g#X\	.	.
.	8EE'\J 8BB	.	16b\	.	.
.	.	.	16ee\JJ)	.	.
*Xped	*	*	*	*	*
=27	=27	=27	=27	=27	=27
*ped	*	*	*	*	*
2.D/ 2.d	4r	.	8r	.	.
.	.	.	8e^>/ 8b 8ee	.	.
.	8EE'\L 8BB	.	(16a/LL	.	.
.	.	.	16f#X/	.	.
.	8EE'\ 8BB	.	16a/	.	.
.	.	.	16cc/JJ	.	.
.	8EE'\ 8BB	.	16b\LL	.	.
.	.	.	16g#X\	.	.
.	8EE'\J 8BB	.	16b\	.	.
.	.	.	16ee\JJ)	.	.
*Xped	*	*	*	*	*
*v	*v	*	*	*	*
=28	=28	=28	=28	=28
*	*	*^	*	*
*ped	*	*	*	*	*
8AAA/ 8EE 8AA	.	8r	4ryy	.	ff
!	!	!LO:TX:b:i:t=e ben marc.	!	!	!
8E^\ 8A 8c#X 8e	.	8ee^\ 8aa 8eee	.	.	.
4F^\ 4B 4d	.	(16ddd/LL	4ff\	4	.
.	.	16ccc#X/J	.	3	.
.	.	8bb/J)	.	2	.
*Xped	*	*	*	*	*
8E^\L 8A 8c# 8e	.	8ee^\L 8aa 8ccc# 8eee	4ryy	.	.
8F^\J 8B 8d	.	8ff^\J 8bb 8ddd 8fff	.	.	.
!!LO:LB:g=original
=29	=29	=29	=29	=29	=29
8AAA^/ 8EE 8AA	.	8r	4ryy	.	.
8E^\ 8A 8c#X 8e	.	8ee^\ 8aa 8eee	.	.	.
4F^\ 4B 4d	.	(16ddd/LL	4ff\	.	.
.	.	16ccc#X/J	.	.	.
.	.	8bb/J)	.	.	.
8E^\L 8A 8c# 8e	.	8ee^\L 8ccc#	4ryy	4	.
8F^\J 8B 8d	.	8dd^\J 8bb	.	3	.
=30	=30	=30	=30	=30	=30
8AAA^/ 8EE 8AA	.	8r	4ryy	.	.
8E^\ 8A 8c#X 8e	.	8ee^\ 8aa 8eee	.	.	.
4F^\ 4B 4d	.	(16ddd/LL	4ff\	.	.
.	.	16ccc#X/J	.	.	.
.	.	8bb/J)	.	.	.
8E^\L 8A 8c# 8e	.	(16eee/LL	8ee\L	5	.
.	.	16ccc#/	.	3	.
8F^\J 8B 8d	.	16ddd/	8ff\J	4	.
.	.	16fff/JJ)	.	5	.
=31	=31	=31	=31	=31	=31
8AAA^/ 8EE 8AA	.	8r	4ryy	.	.
8E^\ 8A 8c#X 8e	.	8ee^\ 8aa 8eee	.	.	.
4F^\ 4B 4d	.	(16ddd/LL	4ff\	.	.
.	.	16ccc#X/J	.	.	.
.	.	8bb/J)	.	.	.
8E^\L 8A 8c# 8e	.	8ee^\L 8ccc#	4ryy	.	.
8F^\J 8B 8d	.	8dd^\J 8bb	.	.	.
*	*	*v	*v	*	*
!!LO:PB:g=original
=32	=32	=32	=32	=32
8AAA/ 8EE 8AA	.	8r	.	sffz
8E^\ 8A 8c#X 8e	.	8ee^\ 8aa 8ccc#X 8eee	.	<
4G^\ 4cn 4e 4g	.	4gg^\ 4cccn 4eee 4ggg	.	.
8F^\L 8B-X 8d 8f	.	(16ff\LL 16fff	.	[ >
.	.	16ddd\)	.	.
8E^\J 8A 8c#X 8e	.	(16ee\ 16eee	.	.
.	.	16ccc#X\JJ)	.	]
=33	=33	=33	=33	=33
8AAA/ 8EE 8AA	.	8r	.	<
8E^\ 8A 8c#X 8e	.	8ee^\ 8aa 8ccc#X 8eee	.	.
4G^\ 4cn 4e 4g	.	4gg^\ 4cccn 4eee 4ggg	.	.
8F\L 8B-X 8d 8f	.	(16ff\LL 16fff	.	[ >
.	.	16ddd\)	.	.
8E\J 8A 8c#X 8e	.	(16ee\ 16eee	.	.
.	.	16ccc#X\JJ)	.	]
=34	=34	=34	=34	=34
8AAA/ 8EE 8AA	.	8r	.	<
8E\ 8A 8c#X 8e	.	8ee^\ 8aa 8ccc#X 8eee	.	.
4A\ 4c# 4f 4a	.	4aa^\ 4ccc# 4fff 4aaa	.	.
8G\L 8B 8e-X 8g	.	(16gg\LL 16ggg	.	[ >
.	.	16eee-X\)	.	.
8F\J 8A 8c# 8f	.	(16ff\ 16fff	.	.
.	.	16ccc#XZ\JJ)	.	]
!!LO:LB:g=original
=35	=35	=35	=35	=35
8AAA/ 8EE 8AA	.	8r	.	<
8E\ 8A 8c#X 8e	.	8ee^\ 8aa 8ccc#X 8eee	.	.
4A\ 4c# 4f 4a	.	4aa^\ 4ccc# 4fff 4aaa	.	.
8G\L 8B 8e-X 8g	.	(16gg\LL 16ggg	.	[ >
.	.	16eee-X\)	.	.
8F\J 8A 8c# 8f	.	(16ff\ 16fff	.	.
.	.	16ccc#XZ\JJ)	.	]
=36	=36	=36	=36	=36
8AAA/ 8EE 8AA	.	8r	.	fff
!	!	!	!	!LO:HP:t=cresc. possibile:ext=s
8E\ 8A 8c 8e	.	8ee^\ 8aa 8cccn 8eee	.	<
*	*	*8va	*	*
8F\ 8B-X 8d-X 8f	.	8bb-X^\ 8ddd-X 8fff 8bbb-X	.	.
4F\ 4B- 4d- 4f	.	4bb-^\ 4ddd- 4fff 4bbb-	.	.
8F\ 8B- 8d- 8f	.	8bb-^\ 8ddd- 8fff 8bbb-	.	.
*	*	*X8va	*	*
=37	=37	=37	=37	=37
*ped	*	*	*	*
8DD-X/ 8AA-X 8D-X	.	8F^>/ 8A-X 8d-X 8f	.	.
4DD-/ 4AA- 4D-	.	4F^>/ 4A- 4d- 4f	.	.
*Xped	*	*	*	*
8DD-/ 8AA- 8D-	.	8F^>/ 8A- 8d- 8f	.	.
*ped	*	*	*	*
!	!	!LO:TX:a:i:t=largamente	!	!
8BBBn/L 8BBn	.	8r	.	.
8E/J 8G#X 8d	.	8g#X^\ 8ddn 8ee 8gg#X	.	.
*Xped	*	*	*	*
=38	=38	=38	=38	=38
*^	*	*	*	*
*	*ped	*	*	*	*
4r	2.AAA/ 2.EE 2.AA	.	4r	.	.
2E/ 2A 2c 2e	.	.	2a\ 2cc 2ee 2aa	.	.
*	*Xped	*	*	*	*
!!LO:LB:g=original
=39||	=39||	=39||	=39||	=39||	=39||
*ped	*	*below	*	*	*
!	!	!	!LO:TX:a:B:t=Andante con moto.	!	!
(>24AAA/LL	8ryy	5	4r	.	ff
24EE/	.	2	.	.	.
24AA/	.	1	.	.	.
24E/	[8E\	5	.	.	.
24G/	.	3	.	.	.
24B/JJ)	.	1	.	.	.
*v	*v	*	*	*	*
*^	*	*	*	*
*tremolo	*	*	*	*	*
(32G/LLL 32B	2E\]	2 3 5	(24a/LL	.	.
32d/	.	.	.	.	.
.	.	.	24e/	.	.
32G/ 32B	.	.	.	.	.
.	.	.	24a/	.	.
32d/	.	.	.	.	.
32G/ 32B	.	.	24e/	.	.
32d/	.	.	.	.	.
.	.	.	24a/	.	.
32G/ 32B	.	.	.	.	.
.	.	.	24e/JJ)	.	.
32d/	.	.	.	.	.
32G/ 32B	.	.	(24a/LL	.	.
32d/	.	.	.	.	.
.	.	.	24e/	.	.
32G/ 32B	.	.	.	.	.
.	.	.	24a/	.	.
32d/	.	.	.	.	.
32G/ 32B	.	.	24e/	.	.
32d/	.	.	.	.	.
.	.	.	24a/	.	.
32G/ 32B	.	.	.	.	.
.	.	.	24e/JJ)	.	.
*Xped	*	*	*	*	*
32d/JJJ)	.	.	.	.	.
*Xtremolo	*	*	*	*	*
=40	=40	=40	=40	=40	=40
*ped	*	*	*	*	*
(>24AAA/LL	8ryy	.	4r	.	.
24EE/	.	.	.	.	.
24AA/	.	.	.	.	.
24E/	[8E\	.	.	.	.
24G/	.	.	.	.	.
24B/JJ)	.	.	.	.	.
*v	*v	*	*	*	*
*^	*	*	*	*
*tremolo	*	*	*	*	*
(32G/LLL 32B	2E\]	.	(24a/LL	.	.
32d/	.	.	.	.	.
.	.	.	24e/	.	.
32G/ 32B	.	.	.	.	.
.	.	.	24a/	.	.
32d/	.	.	.	.	.
32G/ 32B	.	.	24e/	.	.
32d/	.	.	.	.	.
.	.	.	24a/	.	.
32G/ 32B	.	.	.	.	.
.	.	.	24e/JJ)	.	.
32d/	.	.	.	.	.
32G/ 32B	.	.	(24a/LL	.	.
32d/	.	.	.	.	.
.	.	.	24e/	.	.
32G/ 32B	.	.	.	.	.
.	.	.	24a/	.	.
32d/	.	.	.	.	.
32G/ 32B	.	.	24e/	.	.
32d/	.	.	.	.	.
.	.	.	24a/	.	.
32G/ 32B	.	.	.	.	.
.	.	.	24e/JJ)	.	.
*Xped	*	*	*	*	*
32d/JJJ)	.	.	.	.	.
*Xtremolo	*	*	*	*	*
=41	=41	=41	=41	=41	=41
*	*	*	*^	*	*
*ped	*	*	*	*	*	*
(>24AAA/LL	8ryy	.	2.bb/ 2.ddd	(>8.ee\L 8.eee	.	fff
24EE/	.	.	.	.	.	.
24AA/	.	.	.	.	.	.
24E/	[8E\	.	.	.	.	.
24G/	.	.	.	.	.	.
.	.	.	.	16ff#X\Jk) 16fff#X	.	.
24B/JJ)	.	.	.	.	.	.
*tremolo	*	*	*	*	*	*
(32G/LLL 32B	2E\]	.	.	4gg^>\ 4ggg	.	.
32d/	.	.	.	.	.	.
32G/ 32B	.	.	.	.	.	.
32d/	.	.	.	.	.	.
32G/ 32B	.	.	.	.	.	.
32d/	.	.	.	.	.	.
32G/ 32B	.	.	.	.	.	.
32d/	.	.	.	.	.	.
32G/ 32B	.	.	.	4gg^>\ 4ggg	.	.
32d/	.	.	.	.	.	.
32G/ 32B	.	.	.	.	.	.
32d/	.	.	.	.	.	.
32G/ 32B	.	.	.	.	.	.
32d/	.	.	.	.	.	.
32G/ 32B	.	.	.	.	.	.
*Xped	*	*	*	*	*	*
32d/JJJ)	.	.	.	.	.	.
*Xtremolo	*	*	*	*	*	*
*v	*v	*	*	*	*	*
*	*	*v	*v	*	*
!!LO:LB:g=original
=42	=42	=42	=42	=42
*^	*	*^	*	*
*ped	*	*	*	*	*	*
(>24AAA/LL	8ryy	.	2.bb/	(>8.ff#X\L 8.fff#X	.	.
24EE/	.	.	.	.	.	.
24AA/	.	.	.	.	.	.
24E/	[8E\	.	.	.	.	.
24G/	.	.	.	.	.	.
.	.	.	.	16ee\Jk) 16eee	.	.
24B/JJ)	.	.	.	.	.	.
*tremolo	*	*	*	*	*	*
(32G/LLL 32B	2E\]	.	.	2ee\ 2eee	.	.
32d/	.	.	.	.	.	.
32G/ 32B	.	.	.	.	.	.
32d/	.	.	.	.	.	.
32G/ 32B	.	.	.	.	.	.
32d/	.	.	.	.	.	.
32G/ 32B	.	.	.	.	.	.
32d/	.	.	.	.	.	.
32G/ 32B	.	.	.	.	.	.
32d/	.	.	.	.	.	.
32G/ 32B	.	.	.	.	.	.
32d/	.	.	.	.	.	.
32G/ 32B	.	.	.	.	.	.
32d/	.	.	.	.	.	.
32G/ 32B	.	.	.	.	.	.
*Xped	*	*	*	*	*	*
32d/JJJ)	.	.	.	.	.	.
*Xtremolo	*	*	*	*	*	*
*v	*v	*	*	*	*	*
*	*	*v	*v	*	*
=43	=43	=43	=43	=43
*^	*	*	*	*
*ped	*	*	*	*	*
(>24AAA/LL	8ryy	.	(4.ee^\ 4.ccc#X 4.eee	.	.
24EE/	.	.	.	.	.
24AA/	.	.	.	.	.
24E/	[8E\	.	.	.	.
24A/	.	.	.	.	.
24c#X/JJ)	.	.	.	.	.
*tremolo	*	*	*	*	*
(32A/LLL 32c#	2E\]	.	.	.	.
32e/	.	.	.	.	.
32A/ 32c#	.	.	.	.	.
32e/	.	.	.	.	.
*	*	*	*tremolo	*	*
*	*	*	*Xtremolo	*	*
32A/ 32c#	.	.	8dd^\L 8bb 8ddd	5	.
32e/	.	.	.	.	.
32A/ 32c#	.	.	.	.	.
32e/	.	.	.	.	.
32A/ 32c#	.	.	8cc#X^\ 8aa 8ccc#	4	.
32e/	.	.	.	.	.
32A/ 32c#	.	.	.	.	.
32e/	.	.	.	.	.
32A/ 32c#	.	.	8dd^\J 8bb 8ddd	.	.
32e/	.	.	.	.	.
32A/ 32c#	.	.	.	.	.
*Xped	*	*	*	*	*
32e/JJJ)	.	.	.	.	.
*Xtremolo	*	*	*	*	*
=44	=44	=44	=44	=44	=44
*ped	*	*	*	*	*
!	!	!	!LO:TX:b:i:t=poco marc.	!	!
(>8.A:/L 8.c#X:	4AA:\ 4E:	1 2 3 5	4ee^\) 4ccc#X 4eee	.	.
16B/Jk 16d	.	1 2	.	.	.
*v	*v	*	*	*	*
*^	*	*	*	*
4E~\) 4A 4c# 4e	4ryy	.	4a~\ 4cc#X 4ee	.	.
4E~\ 4A 4c# 4e	4ryy	.	4a~\ 4cc# 4ee	.	.
*Xped	*	*	*	*	*
=45	=45	=45	=45	=45	=45
*	*	*	*^	*	*
*ped	*	*	*	*	*	*
(>24AAA/LL	8ryy	.	2.dd/	(>8.g^>\L 8.gg	4	.
24EE/	.	.	.	.	.	.
24AA/	.	.	.	.	.	.
24E/	[8E\	.	.	.	.	.
24G/	.	.	.	.	.	.
.	.	.	.	16a\Jk) 16aa	.	.
24B/JJ)	.	.	.	.	.	.
*v	*v	*	*	*	*	*
*^	*	*	*	*	*
*tremolo	*	*	*	*	*	*
(32G/LLL 32B	2E\]	.	.	4b~>\ 4bb	.	.
32d/	.	.	.	.	.	.
32G/ 32B	.	.	.	.	.	.
32d/	.	.	.	.	.	.
32G/ 32B	.	.	.	.	.	.
32d/	.	.	.	.	.	.
32G/ 32B	.	.	.	.	.	.
32d/	.	.	.	.	.	.
32G/ 32B	.	.	.	4b~>\ 4bb	.	.
32d/	.	.	.	.	.	.
32G/ 32B	.	.	.	.	.	.
32d/	.	.	.	.	.	.
32G/ 32B	.	.	.	.	.	.
32d/	.	.	.	.	.	.
32G/ 32B	.	.	.	.	.	.
*Xped	*	*	*	*	*	*
32d/JJJ)	.	.	.	.	.	.
*Xtremolo	*	*	*	*	*	*
!!LO:LB:g=original
=46	=46	=46	=46	=46	=46	=46
*ped	*	*	*	*	*	*
(>24AAA/LL	8ryy	.	4ryy	(8.b\L 8.bb	5	.
24EE/	.	.	.	.	.	.
24AA/	.	.	.	.	.	.
24E/	[8E\	.	.	.	.	.
24G/	.	.	.	.	.	.
.	.	.	.	16cc#X\Jk 16ccc#X	4	.
24B/JJ)	.	.	.	.	.	.
*v	*v	*	*	*	*	*
*	*	*v	*v	*	*
*^	*	*^	*	*
*tremolo	*	*	*	*	*	*
(32G/LLL 32B	2E\]	.	8raa	4dd\ 4ddd	5	.
32d/	.	.	.	.	.	.
32G/ 32B	.	.	.	.	.	.
32d/	.	.	.	.	.	.
*	*	*	*Xtuplet	*	*	*
32G/ 32B	.	.	40gg/LLL	.	.	.
.	.	.	40aa/	.	.	.
32d/	.	.	.	.	.	.
.	.	.	40gg/	.	.	.
32G/ 32B	.	.	.	.	.	.
.	.	.	40aa/	.	.	.
32d/	.	.	.	.	.	.
.	.	.	[<40gg/JJJ	.	.	.
32G/ 32B	.	.	4gg/]	8cc#\L 8ccc#	.	.
32d/	.	.	.	.	.	.
32G/ 32B	.	.	.	.	.	.
32d/	.	.	.	.	.	.
32G/ 32B	.	.	.	8b\J) 8bb	.	.
32d/	.	.	.	.	.	.
32G/ 32B	.	.	.	.	.	.
*Xped	*	*	*	*	*	*
32d/JJJ)	.	.	.	.	.	.
*Xtremolo	*	*	*	*	*	*
=47	=47	=47	=47	=47	=47	=47
*ped	*	*	*	*	*	*
(>24AAA/LL	8ryy	.	2.ee/	(>4.cc#X^>\ 4.ccc#X	.	.
24EE/	.	.	.	.	.	.
24AA/	.	.	.	.	.	.
24E/	[8E\	.	.	.	.	.
24A/	.	.	.	.	.	.
24c#X/JJ)	.	.	.	.	.	.
*tremolo	*	*	*	*	*	*
(32A/LLL 32c#	2E\]	.	.	.	.	.
32e/	.	.	.	.	.	.
32A/ 32c#	.	.	.	.	.	.
32e/	.	.	.	.	.	.
32A/ 32c#	.	.	.	8b~>\L 8bb	.	.
32e/	.	.	.	.	.	.
32A/ 32c#	.	.	.	.	.	.
32e/	.	.	.	.	.	.
32A/ 32c#	.	.	.	8a~>\ 8aa	.	.
32e/	.	.	.	.	.	.
32A/ 32c#	.	.	.	.	.	.
32e/	.	.	.	.	.	.
32A/ 32c#	.	.	.	8b~>\J) 8bb	.	.
32e/	.	.	.	.	.	.
32A/ 32c#	.	.	.	.	.	.
*Xped	*	*	*	*	*	*
32e/JJJ)	.	.	.	.	.	.
*Xtremolo	*	*	*	*	*	*
*v	*v	*	*	*	*	*
*	*	*v	*v	*	*
=48	=48	=48	=48	=48
*	*	*^	*	*
*ped	*	*	*	*	*
!	!	!LO:TX:b:i:t=poco rit.	!	!	!
8.AA^\L 8.E 8.A 8.c#X	.	2.eeTT/	2.a\ 2.aa	.	.
16B^\Jk 16d	.	.	.	.	.
4E^\ 4A 4c# 4e	.	.	.	.	.
4E^\ 4A 4c# 4e	.	.	.	.	.
*Xped	*	*	*	*	*
*	*	*v	*v	*	*
!!LO:PB:g=original
=49	=49	=49	=49	=49
*^	*	*^	*	*
*ped	*	*	*	*	*	*
!	!	!	!LO:TX:b:i:t=a tempo	!	!	!
(>24AAA/LL	8ryy	.	2.bb/ 2.ddd	(>8.ee^>\L 8.eee	4	.
24EE/	.	.	.	.	.	.
24AA/	.	.	.	.	.	.
24E/	[8E\	.	.	.	.	.
24G/	.	.	.	.	.	.
.	.	.	.	16ff#X\Jk) 16fff#X	.	.
24B/JJ)	.	.	.	.	.	.
*v	*v	*	*	*	*	*
*^	*	*	*	*	*
*tremolo	*	*	*	*	*	*
(32G/LLL 32B	2E\]	.	.	4gg^>\ 4ggg	.	.
32d/	.	.	.	.	.	.
32G/ 32B	.	.	.	.	.	.
32d/	.	.	.	.	.	.
32G/ 32B	.	.	.	.	.	.
32d/	.	.	.	.	.	.
32G/ 32B	.	.	.	.	.	.
32d/	.	.	.	.	.	.
32G/ 32B	.	.	.	4gg^>\ 4ggg	.	.
32d/	.	.	.	.	.	.
32G/ 32B	.	.	.	.	.	.
32d/	.	.	.	.	.	.
32G/ 32B	.	.	.	.	.	.
32d/	.	.	.	.	.	.
32G/ 32B	.	.	.	.	.	.
*Xped	*	*	*	*	*	*
32d/JJJ)	.	.	.	.	.	.
*Xtremolo	*	*	*	*	*	*
*	*	*	*v	*v	*	*
=50	=50	=50	=50	=50	=50
*	*ped	*	*	*	*
.	8qAAA/ 8qAA	.	.	.	.
2.B/ 2.d	8.E\L 8.e	.	8aa^\L 8aaa	5	<
*	*	*	*Xtremolo	*	*
.	.	.	8ff#X^\J 8fff#X	4	.
.	16F#X\Jk 16f#X	.	.	.	.
.	4G\ 4g	.	2ee^\ 2eee	5	.
.	4G\ 4g	.	.	.	[[
*	*Xped	*	*	*	*
*v	*v	*	*	*	*
=51	=51	=51	=51	=51
*ped	*	*	*	*
8A\L 8c#X 8e 8a	.	(4.ee\ 4.ccc#X 4.eee	.	.
8F#X^\J 8f#X	.	.	.	.
4E^\ 4A 4c# 4e	.	.	.	.
.	.	8dd\L 8bb 8ddd	5	.
(>24AAA/LL	.	8cc#X\ 8aa 8ccc#	4	.
24EE/	.	.	.	.
24AA/	.	.	.	.
24C#X/	.	8dd\J 8bb 8ddd	.	.
24E/	.	.	.	.
*Xped	*	*	*	*
24A/JJ)	.	.	.	.
=52	=52	=52	=52	=52
*^	*	*	*	*
*ped	*	*	*	*	*
(8.A/L 8.c#X	4E\	.	4ee\) 4ccc#X 4eee	.	<
16B/Jk) 16d	.	.	.	.	.
4E~\ 4A 4c# 4e	4ryy	.	2eeTT\	.	.
4E~\ 4A 4c# 4e	4ryy	.	.	.	.
*Xped	*	*	*	*	*
!!LO:LB:g=original
=53	=53	=53	=53	=53	=53
*	*	*	*^	*	*
*ped	*	*	*	*	*	*
(>24AAA/LL	8ryy	.	2.dd/ 2.ee	(>8.g^>\L 8.gg	.	.
24EE/	.	.	.	.	.	.
24AA/	.	.	.	.	.	.
24E/	[8E\	.	.	.	.	.
24G/	.	.	.	.	.	.
.	.	.	.	16a^>\Jk 16aa	.	.
24B/JJ)	.	.	.	.	.	.
*v	*v	*	*	*	*	*
*^	*	*	*	*	*
*tremolo	*	*	*	*	*	*
(32G/LLL 32B	2E\]	.	.	4b~>\ 4bb	.	.
32d/	.	.	.	.	.	.
32G/ 32B	.	.	.	.	.	.
32d/	.	.	.	.	.	.
32G/ 32B	.	.	.	.	.	.
32d/	.	.	.	.	.	.
32G/ 32B	.	.	.	.	.	.
32d/	.	.	.	.	.	.
32G/ 32B	.	.	.	4b~>\) 4bb	.	.
32d/	.	.	.	.	.	.
32G/ 32B	.	.	.	.	.	.
32d/	.	.	.	.	.	.
32G/ 32B	.	.	.	.	.	.
32d/	.	.	.	.	.	.
32G/ 32B	.	.	.	.	.	.
*Xped	*	*	*	*	*	*
32d/JJJ)	.	.	.	.	.	.
*Xtremolo	*	*	*	*	*	*
=54	=54	=54	=54	=54	=54	=54
*ped	*	*	*	*	*	*
(>24AAA/LL	8ryy	.	2.gg/	(>8.b\L 8.bb	4	<
24EE/	.	.	.	.	.	.
24AA/	.	.	.	.	.	.
24E/	[8E\	.	.	.	.	.
24G/	.	.	.	.	.	.
.	.	.	.	16cc#X\Jk 16ccc#X	.	.
24B/JJ)	.	.	.	.	.	.
*tremolo	*	*	*	*	*	*
(32G/LLL 32B	2E\]	.	.	4dd\ 4ddd	.	[
32d/	.	.	.	.	.	>
32G/ 32B	.	.	.	.	.	.
32d/	.	.	.	.	.	.
32G/ 32B	.	.	.	.	.	.
32d/	.	.	.	.	.	.
32G/ 32B	.	.	.	.	.	.
32d/	.	.	.	.	.	.
32G/ 32B	.	.	.	8cc#\L 8ccc#	.	.
32d/	.	.	.	.	.	.
32G/ 32B	.	.	.	.	.	.
32d/	.	.	.	.	.	.
32G/ 32B	.	.	.	8b\J) 8bb	.	.
32d/	.	.	.	.	.	.
32G/ 32B	.	.	.	.	.	.
*Xped	*	*	*	*	*	*
32d/JJJ)	.	.	.	.	.	]]
*Xtremolo	*	*	*	*	*	*
*v	*v	*	*	*	*	*
*	*	*v	*v	*	*
=55	=55	=55	=55	=55
*^	*	*^	*	*
*ped	*	*	*	*	*	*
(>24AAA/LL	8ryy	.	2.ee/	(>4.cc#X\ 4.ccc#X	.	.
24EE/	.	.	.	.	.	.
24AA/	.	.	.	.	.	.
24E/	[8E\	.	.	.	.	.
24A/	.	.	.	.	.	.
24c#X/JJ)	.	.	.	.	.	.
*tremolo	*	*	*	*	*	*
(32A/LLL 32c#	2E\]	.	.	.	.	.
32e/	.	.	.	.	.	.
32A/ 32c#	.	.	.	.	.	.
32e/	.	.	.	.	.	.
32A/ 32c#	.	.	.	8b\L 8bb	.	.
32e/	.	.	.	.	.	.
32A/ 32c#	.	.	.	.	.	.
32e/	.	.	.	.	.	.
32A/ 32c#	.	.	.	8a\ 8aa	.	.
32e/	.	.	.	.	.	.
32A/ 32c#	.	.	.	.	.	.
32e/	.	.	.	.	.	.
32A/ 32c#	.	.	.	8b\J) 8bb	.	.
32e/	.	.	.	.	.	.
32A/ 32c#	.	.	.	.	.	.
*Xped	*	*	*	*	*	*
32e/JJJ)	.	.	.	.	.	.
*Xtremolo	*	*	*	*	*	*
*v	*v	*	*	*	*	*
*	*	*v	*v	*	*
!!LO:LB:g=original
=56	=56	=56	=56	=56
*	*	*^	*	*
*ped	*	*	*	*	*
!	!	!LO:TX:a:i:t=poco rit.	!	!	!
8.AA\L 8.E 8.A 8.c#X	.	2.aa/	(8.a^\L 8.cc#X	.	.
16B\Jk 16d	.	.	16b^\Jk) 16dd	1 3	.
4E\ 4A 4c# 4e	.	.	4a^\ 4cc# 4ee	1 2 4	.
4E\ 4A 4c# 4e	.	.	4a^\ 4cc# 4ee	.	.
*Xped	*	*	*	*	*
*	*	*v	*v	*	*
=57	=57	=57	=57	=57
*ped	*	*	*	*
!	!	!LO:TX:a:i:t=a tempo	!	!LO:DY:t=con tutta %sorza
4FFF/ 4CC 4FF	.	8.a^\L 8.ccn 8.ff 8.aa	.	f
.	.	16b^\Jk 16bb	.	.
4C\ 4F 4A 4c	.	4cc^\ 4ff 4aa 4ccc	.	.
4C\ 4F 4A 4c	.	4cc^\ 4ff 4aa 4ccc	.	.
*Xped	*	*	*	*
=58	=58	=58	=58	=58
*ped	*	*	*	*
4CC/ 4GG 4C	.	8.cc^\L 8.ee 8.gg 8.ccc	.	.
.	.	16dd^\Jk 16ddd	.	.
8.C^\L 8.E 8.G 8.c	.	4ee^\ 4gg 4ccc 4eee	.	.
16D^\Jk 16d	.	.	.	.
4E^\ 4G 4c 4e	.	4ee^\ 4gg 4ccc 4eee	.	.
*Xped	*	*	*	*
=59	=59	=59	=59	=59
*ped	*	*	*	*
4AAA/ 4EE 4AA	.	8.cc^\L 8.ee 8.aa 8.ccc	.	.
.	.	16dd^\Jk 16ddd	.	.
4C^\ 4E 4A 4c	.	4ee^\ 4aa 4ccc 4eee	.	.
4E^\ 4A 4c 4e	.	4ee^\ 4aa 4ccc 4eee	.	.
*Xped	*	*	*	*
=60	=60	=60	=60	=60
*ped	*	*	*	*
4EE/ 4BB 4E	.	8.ee\L 8.gg#X 8.bb 8.eee	.	.
.	.	16ff#X\Jk 16fff#X	.	.
8.E\L 8.G#X 8.B 8.e	.	4gg#\ 4bb 4eee 4ggg#X	.	.
16F#X\Jk 16f#X	.	.	.	.
4G#\ 4B 4e 4g#X	.	4gg#\ 4bb 4eee 4ggg#	.	.
*Xped	*	*	*	*
!!LO:LB:g=original
=61	=61	=61	=61	=61
*ped	*	*	*	*
4CC#X/ 4GG#X 4C#X	.	(4.gg#X\ 4.ccc#X 4.eee 4.ggg#X	.	fff
4E\ 4G#X 4c#X 4e	.	.	.	.
.	.	8ff#X\L 8fff#X	4	.
4E\ 4G# 4c# 4e	.	8ee\ 8eee	5	.
*Xped	*	*	*	*
.	.	8ff#\J) 8fff#	4	.
=62	=62	=62	=62	=62
*ped	*	*	*	*
(16qqFFF#X/LL	.	.	.	.
16qqCC#X/	.	.	.	.
16qqFF#X/JJ	.	.	.	.
*^	*	*^	*	*
4.e/) 4.g#X	2.F#X\ 2.A#X	.	2.gg#X/	(>4.ee\ 4.eee	.	>
8d#X/L 8f#X	.	1 2	.	8dd#X\L 8ddd#X	.	.
8c#X/ 8e	.	1 3	.	8cc#X\ 8ccc#X	.	.
*Xped	*	*	*	*	*	*
8d#/J 8f#	.	1 2	.	8dd#\J) 8ddd#	.	]
*	*	*	*v	*v	*	*
=63	=63	=63	=63	=63	=63
*ped	*	*	*	*	*
8.C#X/L	4CC#X\ 4GG#X	.	4cc#X\ 4ee#X 4gg#X 4ccc#X	.	mf
16D#X/Jk	.	.	.	.	.
4CC#:/ 4GG#: 4C#: 4E#X:	4ryy	.	4g#X~\ 4cc# 4ee# 4gg#	.	>
*Xped	*	*	*	*	*
*ped	*	*	*	*	*
!	!	!	!LO:TX:a:i:t=rit. poco a poco	!	!
4AAA/ 4EE 4AA	4ryy	.	4f#X~\ 4g# 4ccn 4een 4gg#	.	]
*Xped	*	*	*	*	*
=64	=64	=64	=64	=64	=64
*ped	*	*	*	*	*
8.C#X/L	4CC#X\ 4GG#X	.	4c#X~/ 4en 4g#X 4cc#X	.	mf
16D#X/Jk	.	.	.	.	.
4CC#/ 4GG# 4C# 4En	4ryy	.	4G#X~/ 4c# 4e 4g#	.	>
*Xped	*	*	*	*	*
*ped	*	*	*	*	*
4AAA;</ 4EE 4AA	4ryy	.	4F#X~;/ 4G# 4cn 4f#X 4g#	.	]
*Xped	*	*	*	*	*
*v	*v	*	*	*	*
!!LO:LB:g=original
=65||	=65||	=65||	=65||	=65||
*k[b-e-a-d-g-]	*	*k[b-e-a-d-g-]	*	*
*D-:	*	*D-:	*	*
!	!	!LO:TX:a:B:t=Poco più lento. [quarter]=72.	!	!
!LO:TX:b:i:t=con Pedale	!	!LO:TX:b:i:t=dolce	!	!
(24A-/LL	1	(4.f~/ 4.a-	2 4	p <
24D-/	2	.	.	.
24AA-/	3	.	.	.
24DD-/	5	.	.	.
24AA-/	3	.	.	.
24D-/JJ)	2	.	.	.
(24A-/LL	.	.	.	.
24D-/	.	.	.	.
24AA-/	.	.	.	.
24DD-/	.	8f/L 8a-	.	.
24AA-/	.	.	.	[
24D-/JJ)	.	.	.	>
(24A-/LL	.	8g-/ 8b-	3 5	.
24D-/	.	.	.	.
24AA-/	.	.	.	.
24DD-/	.	8e-/J 8g-	2 4	.
24AA-/	.	.	.	]
24D-/JJ)	.	.	.	.
=66	=66	=66	=66	=66
*^	*	*	*	*
*Xtuplet	*	*	*	*	*
!LO:N:vis=2	!	!	!	!	!
!LO:TX:t=P:problem=2 z dwoma belkami	!	!	!	!	!
24A-/LL	2A-\	.	8.d-/L 8.f	1 3	.
24D-/	.	.	.	.	.
24AA-/	.	.	.	.	.
24DD-/	.	.	.	.	.
24AA-/	.	.	.	.	.
.	.	.	16e-/Jk 16g-	2 4	.
24D-/JJ	.	.	.	.	.
24A-/LL	.	.	4f/ 4a-	1 3	.
24D-/	.	.	.	.	.
24AA-/	.	.	.	.	.
24DD-/	.	.	.	.	.
24AA-/	.	.	.	.	.
24D-/JJ	.	.	.	.	.
24B-/LL	4B-\	.	4g-\) 4dd-	2 5	.
24D-/	.	.	.	.	.
24AA-/	.	.	.	.	.
24DD-/	.	.	.	.	.
24AA-/	.	.	.	.	.
24D-/JJ	.	.	.	.	.
*v	*v	*	*	*	*
!!LO:PB:g=original
=67	=67	=67	=67	=67
24A-/LL	.	(4.f/ 4.a-	2 4	.
24D-/	.	.	.	.
24AA-/	.	.	.	.
24DD-/	.	.	.	.
24AA-/	.	.	.	.
24D-/JJ	.	.	.	.
24A-/LL	.	.	.	.
24D-/	.	.	.	.
24AA-/	.	.	.	.
24DD-/	.	8f/L 8a-	.	.
24AA-/	.	.	.	.
24D-/JJ	.	.	.	.
24A-/LL	.	8g-/ 8b-	.	.
24D-/	.	.	.	.
24AA-/	.	.	.	.
24DD-/	.	8e-/J 8g-	.	.
24AA-/	.	.	.	.
24D-/JJ	.	.	.	.
=68	=68	=68	=68	=68
*^	*	*	*	*
!LO:N:vis=2	!	!	!	!	!
!LO:TX:t=P:problem=2 z dwoma belkami	!	!	!	!	!
24A-/LL	2A-\	.	8.d-/L 8.f	.	.
24D-/	.	.	.	.	.
24AA-/	.	.	.	.	.
24DD-/	.	.	.	.	.
24AA-/	.	.	.	.	.
.	.	.	16e-/Jk 16g-	.	.
24D-/JJ	.	.	.	.	.
24A-/LL	.	.	4f/ 4a-	.	.
24D-/	.	.	.	.	.
24AA-/	.	.	.	.	.
24DD-/	.	.	.	.	.
24AA-/	.	.	.	.	.
24D-/JJ	.	.	.	.	.
24B-/LL	4B-\	.	4g-\) 4dd-	.	.
24D-/	.	.	.	.	.
24AA-/	.	.	.	.	.
24DD-/	.	.	.	.	.
24AA-/	.	.	.	.	.
24D-/JJ	.	.	.	.	.
!!LO:LB:g=original
=69	=69	=69	=69	=69	=69
*	*	*	*^	*	*
!	!LO:N:vis=2	!	!	!	!	!
!	!LO:TX:t=P:problem=2 z dwoma belkami	!	!	!	!	!
(2A-/	24A-\LL	.	(4.ff/	2f\ 2dd-	.	mf >
.	24D-\	.	.	.	.	.
.	24AA-\	.	.	.	.	.
.	24DD-\	.	.	.	.	.
.	24AA-\	.	.	.	.	.
.	24D-\JJ	.	.	.	.	.
.	24A-\LL	.	.	.	.	.
.	24D-\	.	.	.	.	.
.	24AA-\	.	.	.	.	.
.	24DD-\	.	8ff~/L	.	5	.
.	24AA-\	.	.	.	.	.
.	24D-\JJ	.	.	.	.	.
4B-/)	24B-\LL	.	8ee-~/	4g-\	4	.
.	24D-\	.	.	.	.	.
.	24AA-\	.	.	.	.	.
.	24DD-\	.	8ee-~/J	.	3	.
.	24AA-\	.	.	.	.	] <
.	24D-\JJ	.	.	.	.	[
=70	=70	=70	=70	=70	=70	=70
!	!LO:N:vis=2	!	!	!	!	!
!	!LO:TX:t=P:problem=2 z dwoma belkami	!	!	!	!	!
2A-/	24A-\LL	.	8.aa-:/L	2f:\ 2dd-:	5	>
.	24D-\	.	.	.	.	.
.	24AA-\	.	.	.	.	.
.	24DD-\	.	.	.	.	.
.	24AA-\	.	.	.	.	.
.	.	.	16ff/Jk	.	4	.
.	24D-\JJ	.	.	.	.	.
.	24A-\LL	.	4dd-/	.	2-3	.
.	24D-\	.	.	.	.	.
.	24AA-\	.	.	.	.	.
.	24DD-\	.	.	.	.	.
.	24AA-\	.	.	.	.	.
.	24D-\JJ	.	.	.	.	.
4ryy	24A-\LL	.	4g-/) 4b-	4ryy	1 2	.
.	24D-\	.	.	.	.	.
.	24AA-\	.	.	.	.	.
.	24DD-\	.	.	.	.	.
.	24AA-\	.	.	.	.	.
.	24D-\JJ	.	.	.	.	]]
*	*	*	*v	*v	*	*
!!LO:LB:g=original
=71	=71	=71	=71	=71	=71
24A-/LL	4A-\	.	(>8.f~/L 8.a-	3 5	>
24D-/	.	.	.	.	.
24AA-/	.	.	.	.	.
24DD-/	.	.	.	.	.
24AA-/	.	.	.	.	.
.	.	.	16d-~/Jk 16f	2 4	.
24D-/JJ	.	.	.	.	.
24A-/LL	4ryy	.	4F~/ 4d-	1 2-3	.
24D-/	.	.	.	.	.
24AA-/	.	.	.	.	.
24DD-/	.	.	.	.	.
24AA-/	.	.	.	.	.
24D-/JJ	.	.	.	.	.
24A-/LL	4ryy	.	4G-~/) 4B-	1 2	.
24D-/	.	.	.	.	.
24AA-/	.	.	.	.	.
24DD-/	.	.	.	.	.
24AA-/	.	.	.	.	.
24D-/JJ	.	.	.	.	]]
*v	*v	*	*	*	*
=72	=72	=72	=72	=72
*	*	*^	*	*
24A-/LL	.	(4.a-:/	2F:\ 2d-:	.	.
24D-/	.	.	.	.	.
24AA-/	.	.	.	.	.
24DD-/	.	.	.	.	.
24AA-/	.	.	.	.	.
24D-/JJ	.	.	.	.	.
24A-/LL	.	.	.	.	.
24D-/	.	.	.	.	.
24AA-/	.	.	.	.	.
24DD-/	.	8a-/L	.	.	.
24AA-/	.	.	.	.	.
24D-/JJ	.	.	.	.	.
24A-/LL	.	8b-:/	4G-:\ 4B-:	.	.
24D-/	.	.	.	.	.
24AA-/	.	.	.	.	.
24DD-/	.	8g-/J)	.	.	.
24AA-/	.	.	.	.	.
24D-/JJ	.	.	.	.	.
!!LO:LB:g=original
=73	=73	=73	=73	=73	=73
24A-/LL	.	(8.f/L	2F\ 2d-	5	.
24D-/	.	.	.	.	.
24AA-/	.	.	.	.	.
24DD-/	.	.	.	.	.
24AA-/	.	.	.	.	.
.	.	16g-/Jk	.	3	.
24D-/JJ	.	.	.	.	.
24A-/LL	.	4a-/	.	4	.
24D-/	.	.	.	.	.
24AA-/	.	.	.	.	.
24DD-/	.	.	.	.	.
24AA-/	.	.	.	.	.
24D-/JJ	.	.	.	.	.
24A-/LL	.	4dd-:/)	4B-:\ 4g-:	5	.
24D-/	.	.	.	.	.
24AA-/	.	.	.	.	.
24DD-/	.	.	.	.	.
24AA-/	.	.	.	.	.
24D-/JJ	.	.	.	.	.
=74	=74	=74	=74	=74	=74
24A-/LL	.	(4.a-:/	2F:\ 2d-:	.	<
24D-/	.	.	.	.	.
24AA-/	.	.	.	.	.
24DD-/	.	.	.	.	.
24AA-/	.	.	.	.	.
24D-/JJ	.	.	.	.	.
24A-/LL	.	.	.	.	.
24D-/	.	.	.	.	.
24AA-/	.	.	.	.	.
24DD-/	.	8a-/L	.	.	.
24AA-/	.	.	.	.	.
24D-/JJ	.	.	.	.	[
24A-/LL	.	8b-:/	4G-:\ 4B-:	.	>
24D-/	.	.	.	.	.
24AA-/	.	.	.	.	.
24DD-/	.	8g-/J)	.	.	.
24AA-/	.	.	.	.	.
24D-/JJ	.	.	.	.	]]
!!LO:LB:g=original
=75	=75	=75	=75	=75	=75
24A-/LL	.	(8.f:/L	2F:\ 2d-:	.	<
24D-/	.	.	.	.	.
24AA-/	.	.	.	.	.
24DD-/	.	.	.	.	.
24AA-/	.	.	.	.	.
.	.	16g-/Jk	.	.	.
24D-/JJ	.	.	.	.	.
24A-/LL	.	4a-/	.	.	.
24D-/	.	.	.	.	.
24AA-/	.	.	.	.	.
24DD-/	.	.	.	.	.
24AA-/	.	.	.	.	.
24D-/JJ	.	.	.	.	[
24A-/LL	.	4dd-/)	4B-\ 4g-	.	.
24D-/	.	.	.	.	.
24AA-/	.	.	.	.	.
24DD-/	.	.	.	.	.
24AA-/	.	.	.	.	.
24D-/JJ	.	.	.	.	.
=76	=76	=76	=76	=76	=76
24A-/LL	.	(4.ff:/	2d-:\ 2a-:	.	>
24D-/	.	.	.	.	.
24AA-/	.	.	.	.	.
24DD-/	.	.	.	.	.
24AA-/	.	.	.	.	.
24D-/JJ	.	.	.	.	.
24A-/LL	.	.	.	.	.
24D-/	.	.	.	.	.
24AA-/	.	.	.	.	.
24DD-/	.	8ff~/L	.	.	.
24AA-/	.	.	.	.	.
24D-/JJ	.	.	.	.	]
24A-/LL	.	8dd-~/	4B-\ 4e-	5	.
24D-/	.	.	.	.	.
24AA-/	.	.	.	.	.
24DD-/	.	8dd-~/J)	.	4	.
24AA-/	.	.	.	.	.
24D-/JJ	.	.	.	.	.
!!LO:LB:g=original
=77	=77	=77	=77	=77	=77
24A-/LL	.	(4.ff:/	2d-:\ 2a-:	.	>
24D-/	.	.	.	.	.
24AA-/	.	.	.	.	.
24DD-/	.	.	.	.	.
24AA-/	.	.	.	.	.
24D-/JJ	.	.	.	.	.
24A-/LL	.	.	.	.	.
24D-/	.	.	.	.	.
24AA-/	.	.	.	.	.
24DD-/	.	8ff~/L	.	.	.
24AA-/	.	.	.	.	.
24D-/JJ	.	.	.	.	]
24A-/LL	.	8dd-~/	4B-\ 4e-	5	.
24D-/	.	.	.	.	.
24AA-/	.	.	.	.	.
24DD-/	.	8dd-~/J)	.	3	.
24AA-/	.	.	.	.	.
24D-/JJ	.	.	.	.	.
*	*	*v	*v	*	*
=78	=78	=78	=78	=78
(24A-/LL	.	2.f:\ 2.dd-: 2.aa-:	.	.
24D-/	.	.	.	.
24AA-/	.	.	.	.
24DD-/	.	.	.	.
24AA-/	.	.	.	.
24D-/JJ	.	.	.	.
!LO:TX:a:i:t=poco rit.	!	!	!	!
24A-/LL	.	.	.	.
24D-/	.	.	.	.
24AA-/	.	.	.	.
24DD-/	.	.	.	.
24AA-/	.	.	.	.
24D-/JJ	.	.	.	.
[<12A-\L	1-4	.	.	.
12A-\_ [12d-	2	.	.	.
12A-\J_) 12d-_ [12f	1	.	.	.
=79	=79	=79	=79	=79
2A-\] 2d-] 2f]	.	2.a-~^TT/	.	sfz p <
4rD	.	.	.	[
!!LO:PB:g=original
=80||	=80||	=80||	=80||	=80||
*k[]	*	*k[]	*	*
*C:	*	*C:	*	*
*M3/4	*	*M3/4	*	*
!LO:TX:b:i:t=ben marc.	!	!	!	!
!	!	!LO:TX:a:B:t=Tempo I.	!	!
8CC^/L 8GG 8C	.	8ra	.	p
8GG^/J 8C 8G	.	8c^>/ 8g	1 3	.
2GTT\	.	(16f/LL	2	<
.	.	16d/	1	.
.	.	16f/	2	.
.	.	16a/JJ	4	.
.	.	16g/LL	3	.
.	.	16e/	1	.
.	.	16g/	3	.
.	.	16cc/JJ)	5	[
=81	=81	=81	=81	=81
!LO:TX:b:i:t=ben marc.	!	!	!	!
8CC^/L 8GG 8C	.	8ra	.	.
8GG^/J 8C 8G	.	8c^>/ 8g	.	.
2GTT\	.	(16f/LL	.	>
.	.	16d/	.	.
.	.	16f/	.	.
.	.	16a/JJ	.	.
.	.	16g/LL	.	.
.	.	16e/J	.	.
.	.	8c/J)	.	]
=82	=82	=82	=82	=82
8CC^/L 8GG 8C	.	8ra	.	.
8GG^/J 8C 8G	.	8c^>/ 8g	.	.
2GTT\	.	(16f/LL	.	.
.	.	16d/	.	.
.	.	16f/	.	.
.	.	16a/JJ	.	.
.	.	16g/LL	.	.
.	.	16e/	.	.
.	.	16g/	.	.
.	.	16cc/JJ)	.	.
!!LO:LB:g=original
=83	=83	=83	=83	=83
8CC^/L 8GG 8C	.	8ra	.	.
8GG^/J 8C 8G	.	8c^>/ 8g	.	.
2GTT\	.	(16f/LL	.	.
.	.	16d/	.	.
.	.	16f/	.	.
.	.	16a/JJ	.	.
.	.	16g/LL	.	.
.	.	16e/J	.	.
.	.	8c/J)	.	.
=84	=84	=84	=84	=84
8EE-X^/L 8BB-X 8E-X	.	8ra	.	mf
8BB-^/J 8E- 8B-X	.	8e-X^>/ 8b-X	.	.
2B-TT\	.	(24f\LL	.	<
.	.	24anXZ\	.	.
.	.	24cc\	.	.
.	.	24ff\	.	.
.	.	24aa\	.	.
.	.	24ccc\JJ	.	[
.	.	16bb-X\LL	.	.
.	.	16gg\	.	.
.	.	16bb-\	.	.
.	.	16eee-X\JJ)	.	.
=85	=85	=85	=85	=85
8EE-X^/L 8BB-X 8E-X	.	8ra	.	.
8BB-^/J 8E- 8B-X	.	8e-X^>/ 8b-X	.	.
2B-TT\	.	(24f\LL	.	<
.	.	24anXZ\	.	.
.	.	24cc\	.	.
.	.	24ff\	.	.
.	.	24aa\	.	.
.	.	24ccc\JJ	.	[
.	.	16bb-X\LL	.	>
.	.	16gg\J	.	.
.	.	8ee-X\J)	.	]
!!LO:LB:g=original
=86	=86	=86	=86	=86
8EE-X^/L 8BB-X 8E-X	.	8ra	.	p
8BB-^/J 8E- 8B-X	.	8e-X^>/ 8b-X	.	.
2B-TT\	.	(16a/LL	.	<
.	.	16f/	.	.
.	.	16a/	.	.
.	.	16cc/JJ	.	.
.	.	16b-\LL	.	.
.	.	16g\	.	.
.	.	16b-\	.	.
.	.	16ee-X\JJ)	.	[[
=87	=87	=87	=87	=87
8EE-X^/L 8BB-X 8E-X	.	8ra	.	.
8BB-^/J 8E- 8B-X	.	8e-X^>/ 8b-X	.	.
2B-TT\	.	(16a/LL	.	>
.	.	16f/	.	.
.	.	16a/	.	.
.	.	16cc/JJ	.	.
.	.	16b-/LL	.	.
.	.	16g/J	.	.
.	.	8e-/J)	.	]
=88	=88	=88	=88	=88
(16G^\LL	.	(16g^>/LL	4	.
16E-X\J	.	16e-X/J	2	.
8C\J)	.	8c/J)	1	.
(16E-^/LL	.	(16e-^>/LL	4	.
16C/J	.	16c/J	2	.
8AA-X/J)	.	8A-X/J)	1	.
4FFF^/ 4FF	.	4F^>/	2	.
=89	=89	=89	=89	=89
*ped	*	*	*	*
2.GGG-X^/ 2.GG-X	.	2.G-X^>/	3	.
*Xped	*	*	*	*
!!LO:LB:g=original
=90||	=90||	=90||	=90||	=90||
*k[b-e-a-d-g-]	*	*k[b-e-a-d-g-]	*	*
*D-:	*	*D-:	*	*
*^	*	*	*	*
*	*ped	*	*	*	*
4ryy	8DD-^/L 8AA- 8D-	.	8r	.	mf
.	[8AA-^/J [8D-	3 5	8d-^>/ 8a-	.	rfz
*	*Xped	*above	*	*	*
(16E-/LL	2AA-\] 2D-]	2	(16gn/LL	2	.
16Gn/	.	1	16e-/	1	.
16E-/	.	2	16g/	2	.
16G/JJ	.	1	16b-/JJ	4	.
16F/LL	.	.	16a-/LL	3	.
16A-/	.	.	16f/	1	.
16F/	.	.	16a-/	3	.
16A-/JJ)	.	.	16dd-/JJ)	5	.
=91	=91	=91	=91	=91	=91
4ryy	8DD-^/L 8AA- 8D-	.	8r	.	.
.	[8AA-^/J [8D-	.	8d-^>/ 8a-	.	.
(16E-/LL	2AA-\] 2D-]	.	(16gn/LL	.	.
16Gn/	.	.	16e-/	.	.
16E-/	.	.	16g/	.	.
16G/JJ	.	.	16b-/JJ	.	.
16F/LL	.	.	16a-/LL	.	.
16A-/	.	.	16f/J	.	.
16F/	.	.	8d-/J)	.	.
16A-/JJ)	.	.	.	.	.
=92	=92	=92	=92	=92	=92
4ryy	8DD-^/L 8AA- 8D-	.	8r	.	.
.	[8AA-^/J [8D-	.	8d-^>/ 8a-	.	.
(16E-/LL	2AA-\] 2D-]	.	(16gn/LL	.	.
16Gn/	.	.	16e-/	.	.
16E-/	.	.	16g/	.	.
16G/JJ	.	.	16b-/JJ	.	.
16F/LL	.	.	16a-/LL	.	.
16A-/	.	.	16f/	.	.
16F/	.	.	16a-/	.	.
16A-/JJ)	.	.	16dd-/JJ)	.	.
!!LO:LB:g=original
=93	=93	=93	=93	=93	=93
4ryy	8DD-^/L 8AA- 8D-	.	8r	.	.
.	[8AA-^/J [8D-	.	8d-^>/ 8a-	.	.
(16E-/LL	2AA-\] 2D-]	.	(16gn/LL	.	.
16Gn/	.	.	16e-/	.	.
16E-/	.	.	16g/	.	.
16G/JJ	.	.	16b-/JJ	.	.
16F/LL	.	.	16a-/LL	.	.
16A-/	.	.	16f/J	.	.
16F/	.	.	8d-/J)	.	.
16A-/JJ)	.	.	.	.	.
*v	*v	*	*	*	*
=94	=94	=94	=94	=94
(16F^/LL	.	(16f^>\LL 16ff	5	.
16D-/J	.	16dd-\J	3	.
8BB-/J)	.	8b-\J)	2	<
(16D-^/LL	.	(16d-^>/LL 16dd-	5	.
16BB-/J	.	16b-/J	4	.
8GG-/J)	.	8g-/J)	2	.
(16BB-^/LL	.	(16B-^>/LL 16b-	5	.
16GG-/J	.	16g-/J	3	.
8EE-/J)	.	8e-/J)	2	.
=95	=95	=95	=95	=95
*ped	*	*	*	*
!	!	!LO:TX:a:i:t=poco rit.	!	!
2.FFF/ 2.FF	.	2.F/ 2.f	.	sfz
*Xped	*	*	*	*
!!LO:PB:g=original
=96||	=96||	=96||	=96||	=96||
*k[]	*	*k[]	*	*
*C:	*	*C:	*	*
*^	*	*	*	*
*	*ped	*	*	*	*
4ryy	8EE'/L 8BB 8E	.	8r	.	f
*	*	*below	*	*	*
.	[8BB/J [8E 8B	1 3 5	8e^>/ 8b	1 3	.
(16F#X/LL	2BB\] 2E]	.	(16a/LL	2	.
*	*Xped	*	*	*	*
16A/	.	.	16f#X/	1	.
16F#/	.	.	16a/	2	.
16A/JJ	.	.	16cc/JJ	4	.
16G/LL	.	.	16b\LL	3	.
16B/	.	.	16g\	1	.
16G/	.	.	16b\	3	.
16B/JJ)	.	.	16ee\JJ)	5	.
=97	=97	=97	=97	=97	=97
4ryy	8EE^/L 8BB 8E	.	8r	.	.
.	[8BB^/J [8E 8B	.	8e^>/ 8b	.	.
(16F#X/LL	2BB\] 2E]	.	(16a/LL	.	.
16A/	.	.	16f#X/	.	.
16F#/	.	.	16a/	.	.
16A/JJ	.	.	16cc/JJ	.	.
16G/LL	.	.	16b/LL	3	.
16B/	.	.	16g/J	2	.
16G/	.	.	8e/J)	1	.
16B/JJ)	.	.	.	.	.
*v	*v	*	*	*	*
=98	=98	=98	=98	=98
8EE'/L 8BB	.	8ra	.	p
!	!	!	!	!LO:HP:t=poco a poco cresc.:ext=s
8BB'/ 8E	.	8e^>/ 8b	.	<
8EE'/ 8BB	.	(16a/LL	.	.
.	.	16f#X/	.	.
8BB'/ 8E	.	16a/	.	.
.	.	16cc/JJ	.	.
8EE'/ 8BB	.	16b\LL	.	.
.	.	16g\	.	.
8BB'/J 8E	.	16b\	.	.
.	.	16ee\JJ)	.	.
!!LO:LB:g=original
=99	=99	=99	=99	=99
8EE'/L 8BB	.	8ra	.	.
8BB'/ 8E	.	8e^>/ 8b	.	.
8EE'/ 8BB	.	(16a/LL	.	.
.	.	16f#X/	.	.
8BB'/ 8E	.	16a/	.	.
.	.	16cc/JJ	.	.
8EE'/ 8BB	.	16b/LL	.	[
.	.	16g/J	.	.
8BB'/J 8E	.	8e/J)	.	.
=100	=100	=100	=100	=100
8EE^/L 8BB 8E	.	8ra	.	ff
8BB^/J 8E 8B	.	8b^\ 8ee 8bb	.	.
(16A\LL	2	(16aa\LL	3	<
16F#X\	4	16ff#X\	2	.
16A\	2	16aa\	3	.
16c\JJ	1	16cc\JJ 16ccc	5	.
16B\LL	2	16bb\LL	4	.
16G\	4	16gg\	2	.
16B\	2	16bb\	3	.
16e\JJ)	1	16ee\JJ) 16eee	5	[
=101	=101	=101	=101	=101
8EE^/L 8BB 8E	.	8ra	.	.
8BB^/J 8E 8B	.	8b^\ 8ee 8bb	.	<
(16A\LL	.	(16aa\LL	.	.
16F#X\	.	16ff#X\	.	.
16A\	.	16aa\	.	.
16c\JJ	.	16ccc\JJ	.	.
16B\LL	.	16bb\LL	.	.
16G\J	.	16gg\J	.	.
8E\J)	.	8ee\J)	.	[
!!LO:LB:g=original
=102	=102	=102	=102	=102
*^	*	*^	*	*
*ped	*	*	*	*	*	*
2E^/	8r	.	8r	4ryy	.	p
!	!LO:TX:b:i:t=ben marc.	!	!	!	!	!LO:HP:t=cresc._molto:ext=ud
.	8EE^\L 8BB	.	[<8e^>/ 8b	.	.	<
.	8EE^\ 8BB	.	(16a/LL	2e\]	.	.
.	.	.	16f#X/	.	.	.
.	8EE^\J 8BB	.	16a/	.	.	.
*Xped	*	*	*	*	*	*
.	.	.	16cc/JJ	.	.	.
*ped	*	*	*	*	*	*
4F#X^/	8F#\L	.	16b/LL	.	.	.
.	.	.	16g#X/	.	.	.
.	8EE'\J 8BB	.	16b/	.	.	.
*Xped	*	*	*	*	*	*
.	.	.	16ee/JJ)	.	.	.
=103	=103	=103	=103	=103	=103	=103
*ped	*	*	*	*	*	*
2G#X^/	8r	.	8r	4ryy	.	.
.	8EE'\L 8BB	.	[<8e^>/ 8b	.	.	.
.	8EE'\ 8BB	.	(16a/LL	2e\]	.	.
.	.	.	16f#X/	.	.	.
.	8EE'\J 8BB	.	16a/	.	.	[
*Xped	*	*	*	*	*	*
.	.	.	16cc/JJ	.	.	.
*ped	*	*	*	*	*	*
4A^/	8A\L	.	16b/LL	.	.	.
.	.	.	16g#X/	.	.	.
.	8EE'\J 8BB	.	16b/	.	.	.
*Xped	*	*	*	*	*	*
.	.	.	16ee/JJ)	.	.	.
=104	=104	=104	=104	=104	=104	=104
*ped	*	*	*	*	*	*
2B^/	8r	.	8r	4ryy	.	.
.	8EE'\L 8BB	.	[<8e^>/ 8b	.	.	.
.	8EE'\ 8BB	.	(16a/LL	2e\]	.	.
.	.	.	16f#X/	.	.	.
.	8EE'\J 8BB	.	16a/	.	.	.
*Xped	*	*	*	*	*	*
.	.	.	16cc/JJ	.	.	.
*ped	*	*	*	*	*	*
4c^/	8r	.	16b/LL	.	.	.
.	.	.	16g#X/	.	.	.
.	8EE\ 8BB	.	16b/	.	.	.
*Xped	*	*	*	*	*	*
.	.	.	16ee/JJ)	.	.	.
*	*	*	*v	*v	*	*
!!LO:LB:g=original
=105	=105	=105	=105	=105	=105
*ped	*	*	*	*	*
2.D/ 2.d	4r	.	8r	.	f
.	.	.	8e^>/ 8b 8ee	.	.
.	8EE'\L 8BB	.	(16a/LL	.	.
.	.	.	16f#X/	.	.
.	8EE'\ 8BB	.	16a/	.	.
.	.	.	16cc/JJ	.	.
.	8EE'\ 8BB	.	16b\LL	.	.
.	.	.	16g#X\	.	.
.	8EE'\J 8BB	.	16b\	.	.
*Xped	*	*	*	*	*
.	.	.	16ee\JJ)	.	.
=106	=106	=106	=106	=106	=106
*ped	*	*	*	*	*
2.D/ 2.d	4r	.	8r	.	.
.	.	.	8e^>/ 8b 8ee	.	.
.	8EE'\L 8BB	.	(16a/LL	.	.
.	.	.	16f#X/	.	.
.	8EE'\ 8BB	.	16a/	.	.
.	.	.	16cc/JJ	.	.
.	8EE'\ 8BB	.	16b\LL	.	.
.	.	.	16g#X\	.	.
.	8EE'\J 8BB	.	16b\	.	.
*Xped	*	*	*	*	*
.	.	.	16ee\JJ)	.	.
*v	*v	*	*	*	*
=107	=107	=107	=107	=107
*	*	*^	*	*
*ped	*	*	*	*	*
8AAA/ 8EE 8AA	.	8ra	4ryy	.	ff
!	!	!LO:TX:b:i:t=ben marc.	!	!	!
8E^\ 8A 8c#X 8e	.	8ee^\ 8aa 8eee	.	.	.
4F^\ 4B 4d	.	(16ddd/LL	4ff\	4	.
.	.	16ccc#X/J	.	3	.
.	.	8bb/J)	.	2	.
*Xped	*	*	*	*	*
8E^\L 8A 8c# 8e	.	8ee^\L 8aa 8ccc# 8eee	4ryy	.	.
8F^\J 8B 8d	.	8ff^\J 8bb 8ddd 8fff	.	.	.
!!LO:LB:g=original
=108	=108	=108	=108	=108	=108
8AAA^/ 8EE 8AA	.	8ra	4ryy	.	.
8E^\ 8A 8c#X 8e	.	8ee^\ 8aa 8eee	.	.	.
4F^\ 4B 4d	.	(16ddd/LL	4ff\	.	.
.	.	16ccc#X/J	.	.	.
.	.	8bb/J)	.	.	.
8E^\L 8A 8c# 8e	.	8ee^\L 8ccc#	4ryy	4	.
8F^\J 8B 8d	.	8dd^\J 8bb	.	3	.
=109	=109	=109	=109	=109	=109
8AAA^/ 8EE 8AA	.	8ra	4ryy	.	.
8E^\ 8A 8c#X 8e	.	8ee^\ 8aa 8eee	.	.	.
4F^\ 4B 4d	.	(16ddd/LL	4ff\	.	.
.	.	16ccc#X/J	.	.	.
.	.	8bb/J)	.	.	.
8E^\L 8A 8c# 8e	.	(16eee/LL	8ee\L	5	.
.	.	16ccc#/	.	3	.
8F^\J 8B 8d	.	16ddd/	8ff\J	4	.
.	.	16fff/JJ)	.	5	.
=110	=110	=110	=110	=110	=110
8AAA^/ 8EE 8AA	.	8ra	4ryy	.	.
8E^\ 8A 8c#X 8e	.	8ee^\ 8aa 8eee	.	.	.
4F^\ 4B 4d	.	(16ddd/LL	4ff\	.	.
.	.	16ccc#X/J	.	.	.
.	.	8bb/J)	.	.	.
8E^\L 8A 8c# 8e	.	8ee^\L 8ccc#	4ryy	.	.
8F^\J 8B 8d	.	8dd^\J 8bb	.	.	.
*	*	*v	*v	*	*
!!LO:PB:g=original
=111	=111	=111	=111	=111
8AAA/ 8EE 8AA	.	8ra	.	fff
8E\ 8A 8c#X 8e	.	8ee^\ 8aa 8ccc#X 8eee	.	.
4G\ 4cn 4e 4g	.	4gg^\ 4cccn 4eee 4ggg	.	.
8F\L 8B-X 8d 8f	.	(16ff\LL 16fff	.	.
.	.	16ddd\	.	.
8E\J 8A 8c#X 8e	.	16ee\ 16eee	.	.
.	.	16ccc#X\JJ)	.	.
=112	=112	=112	=112	=112
8AAA/ 8EE 8AA	.	8ra	.	.
8E\ 8A 8c#X 8e	.	8ee^\ 8aa 8ccc#X 8eee	.	.
4G\ 4cn 4e 4g	.	4gg^\ 4cccn 4eee 4ggg	.	.
8F\L 8B-X 8d 8f	.	(16ff\LL 16fff	.	.
.	.	16ddd\	.	.
8E\J 8A 8c#X 8e	.	16ee\ 16eee	.	.
.	.	16ccc#X\JJ)	.	.
=113	=113	=113	=113	=113
8AAA/ 8EE 8AA	.	8ra	.	.
8E\ 8A 8c#X 8e	.	8ee^\ 8aa 8ccc#X 8eee	.	.
4A\ 4c# 4f 4a	.	4aa^\ 4ccc# 4fff 4aaa	.	.
8G\L 8B 8e-X 8g	.	(16gg\LL 16ggg	.	.
.	.	16eee-X\	.	.
8F\J 8A 8c# 8f	.	16ff\ 16fff	.	.
.	.	16ccc#\JJ)	.	.
=114	=114	=114	=114	=114
8AAA/ 8EE 8AA	.	8ra	.	.
8E\ 8A 8c#X 8e	.	8ee^\ 8aa 8ccc#X 8eee	.	.
4A\ 4c# 4f 4a	.	4aa^\ 4ccc# 4fff 4aaa	.	.
8G\L 8B 8e-X 8g	.	(16gg\LL 16ggg	.	.
.	.	16eee-X\	.	.
8F\J 8A 8c# 8f	.	16ff\ 16fff	.	.
.	.	16ccc#\JJ)	.	.
!!LO:LB:g=original
=115	=115	=115	=115	=115
8AAA/ 8EE 8AA	.	8ra	.	.
!	!	!	!	!LO:HP:t=cresc. possibile:ext=s
8E\ 8A 8c 8e	.	8ee^\ 8aa 8cccn 8eee	.	<
8F\ 8B-X 8d-X 8f	.	8bb-X^\ 8ddd-X 8fff 8bbb-X	.	.
4F\ 4B- 4d- 4f	.	4bb-^\ 4ddd- 4fff 4bbb-	.	.
8F\ 8B- 8d- 8f	.	8bb-^\ 8ddd- 8fff 8bbb-	.	.
=116	=116	=116	=116	=116
8DD-X/ 8AA-X 8D-X	.	8F^>/ 8A-X 8d-X 8f	.	.
4DD-/ 4AA- 4D-	.	4F^>/ 4A- 4d- 4f	.	.
8DD-/ 8AA- 8D-	.	8F^>/ 8A- 8d- 8f	.	.
4GGG/ 4GG	.	4F^>/ 4B 4d#X 4g	.	.
=117	=117	=117	=117	=117
!	!	!LO:TX:a:B:t=Presto.	!	!
8CC^/L 8GG 8C	.	8ra	.	sffz
8GG^/J 8C 8G	.	8g^\ 8cc 8gg	.	.
(16G\LL	5	(16aa\LL	4	<
16A\	.	16gg\	3	.
16B\	.	16ff\	2	.
16c\JJ	.	16ee\JJ)	1	.
16d\LL	.	(16ff\LL	4	.
16e\	3	16ee\	3	.
16f\	.	16dd\	2	.
16g\JJ)	.	16cc\JJ)	1	[[
=118	=118	=118	=118	=118
8CC^/L 8GG 8C	.	8ra	.	.
8GG^/J 8C 8G	.	8d^>/ 8g 8dd	.	.
2GTT\	.	(16cc#X\LL	3	<
.	.	16a\	1	.
.	.	16cc#\	3	.
.	.	16ee\JJ	5	.
.	.	16dd\LL	3	.
.	.	16b\	1	.
.	.	16dd\	3	.
.	.	16gg\JJ)	5	[
!!LO:LB:g=original
=119	=119	=119	=119	=119
8CC^/L 8GG 8C	.	8ra	.	.
8GG^/J 8C 8G	.	8g^\ 8cc 8gg	.	.
(16G\LL	.	(16aa\LL	.	<
16A\	.	16gg\	.	.
16B\	.	16ff\	.	.
16c\JJ	.	16ee\JJ)	.	.
16d\LL	.	(16ff\LL	.	.
16e\	.	16ee\	.	.
16f\	.	16dd\	.	.
16g\JJ)	.	16cc\JJ)	.	[[
=120	=120	=120	=120	=120
8CC^/L 8GG 8C	.	8ra	.	.
8GG^/J 8C 8G	.	8d^>/ 8g 8dd	.	.
2GTT\	.	(16cc#X\LL	.	<
.	.	16a\	.	.
.	.	16cc#\	.	.
.	.	16ee\JJ	.	.
.	.	16dd\LL	.	.
.	.	16b\	.	.
.	.	16dd\	.	.
.	.	16gg\JJ)	.	[[
=121	=121	=121	=121	=121
*ped	*	*	*	*
8CC\L 8GG 8C	.	8ra	.	ff
8G\J 8c 8g	.	8gg^\ 8ccc 8eee 8ggg	.	.
(16a\LL	1	(16aa\LL 16aaa	5	.
16g\	2	16ggg\	4	.
16f\	3	16fff\	3	.
16e\JJ	4	16eee\JJ	2	.
16f\LL	1	16ff\LL 16fff	5	.
16e\	2	16eee\	4	.
16d\	3	16ddd\	3	.
16c\JJ)	4	16ccc\JJ)	2	.
!!LO:LB:g=original
=122	=122	=122	=122	=122
*ped	*	*	*	*
8CC\L 8GG 8C	.	8ra	.	.
8G\J 8c 8g	.	8gg^\ 8ccc 8eee 8ggg	.	.
(16a\LL	.	(16aa\LL 16aaa	.	.
16g\	.	16ggg\	.	.
16f\	.	16fff\	.	.
16e\JJ	.	16eee\JJ	.	.
16f\LL	.	16ff\LL 16fff	.	.
16e\	.	16eee\	.	.
16d\	.	16ddd\	.	.
16c\JJ)	.	16ccc\JJ)	.	.
=123	=123	=123	=123	=123
*ped	*	*	*	*
8CC\L 8GG 8C	.	8ra	.	.
*	*	*8va	*	*
8B-X\J 8e-X 8b-X	.	8bb-X^\ 8eee-X 8bbb-X	.	.
*clefG2	*	*	*	*
(16cc/LL	1	(16ccc\LL 16cccc	5	.
16b-X/	.	16bbb-X\	.	.
16a/	.	16aaa\	.	.
16g/JJ	.	16ggg\JJ	.	.
16a/LL	1	16aa\LL 16aaa	5	.
16g/	.	16ggg\	.	.
16f/	.	16fff\	.	.
16e-/JJ)	.	16eee-\JJ)	.	.
*clefF4	*	*	*	*
=124	=124	=124	=124	=124
*ped	*	*	*	*
8CC\L 8GG 8C	.	8ra	.	.
8B-X\J 8e-X 8b-X	.	8bb-X^\ 8eee-X 8bbb-X	.	.
*clefG2	*	*	*	*
(16cc/LL	.	(16ccc\LL 16cccc	.	.
16b-X/	.	16bbb-X\	.	.
16a/	.	16aaa\	.	.
16g/JJ	.	16ggg\JJ	.	.
16a/LL	.	16aa\LL 16aaa	.	.
16g/	.	16ggg\	.	.
16f/	.	16fff\	.	.
16e-X/JJ)	.	16eee-\JJ)	.	.
*	*	*X8va	*	*
!!LO:LB:g=original
*clefF4	*	*	*	*
=125	=125	=125	=125	=125
8CC/ 8GG 8C	.	8ra	.	.
*clefG2	*	*	*	*
*	*	*8va	*	*
8c/ 8g 8cc	.	8ccc^\ 8ggg 8cccc	.	.
(16dd\LL	1	(16ddd\LL 16dddd	5	.
16cc\	2	16cccc\	4	.
16b\	3	16bbb\	3	.
16a\JJ)	4	16aaa\JJ)	2	.
(16a/LL	1	(16aa\LL 16aaa	5	.
16g/	.	16ggg\	.	.
16f/	.	16fff\	.	.
16e/JJ)	.	16eee\JJ)	.	.
=126	=126	=126	=126	=126
(16f/LL	1	(16ff\LL 16fff	5	.
16e/	2	16eee\	.	.
16d/	3	16ddd\	.	.
16c/JJ)	1	16ccc\JJ)	.	.
*clefF4	*	*	*	*
(16D\LL	5	(16dd/LL 16ddd	5	.
16E\	.	16ccc/	4	.
16F\	.	16bb/	3	.
16G\JJ	.	16aa/JJ	2	.
16A\LL	.	16gg/LL	1	.
16B\	3	16ff/	3	.
16c\	.	16ee/	2	.
16d\JJ)	.	16dd/JJ)	1	.
*	*	*X8va	*	*
=127	=127	=127	=127	=127
*ped	*	*	*	*
!	!	!LO:TX:b:i:t=rit.	!	!
4DD-X^/ 4D-X	.	4d-X^>/ 4dd-X	.	.
*Xped	*	*	*	*
*ped	*	*	*	*
4EE-X^/ 4E-X	.	4e-X^>/ 4ee-X	.	.
*Xped	*	*	*	*
*ped	*	*	*	*
4GGG'/ 4GG	.	4f'\ 4g 4b 4dd#X 4gg	.	.
*Xped	*	*	*	*
=128	=128	=128	=128	=128
*ped	*	*	*	*
2CC;</ 2GG 2C	.	2c;/ 2e 2g 2cc	.	.
*Xped	*	*	*	*
==	==	==	==	==
*-	*-	*-	*-	*-
!!!system-decoration: {(s1,s2)}
!!!RDF**kern: < = below
!!!RDF**kern: > = above
!!!RDF**kern: Z = editorial accidental, paren
!!!ENC: Anastazja Marusiak
!!!END: 2023-10-23
!!!EED: Marta Chmielewska
!!!EEV: 2023-11-14
!!!YEM: Copyright © 2023 by [Copyright Holder]
